X:1
T:Title
%%score { 1 | 2 }
L:1/8
Q:1/4=100
M:4/4
K:Bb
V:1 treble nm="Grand Piano"
V:2 bass 
V:1
 (3[DF][DF][DF] [DF]>[DF] [EG]2 [DF]2 | A>A A>A G2 z2 | (3AAA A>A G2 F2 | [DF]>[DF] [FB]>c d2 z2 | %4
w: Grant~C.~Tuller * * * * * *||||
 (3ddd d>d d2 c2 | [FB]>[FA] [FA]>[FA] G2 z2 | (3FFF B>c B>A G>A | [DB]6 z2 | (3ddd d>d e2 d2 | %9
w: |||||
 (3dcc c>c c2 z2 | (3ccc c>c [Af]2 [Ae]2 | e>d d>d d2 z2 | (3ddd d>d d2 c2 | %13
w: ||||
 [FB]>[FA] [FA]>[FA] G2 z2 | (3FFF B>c B>A G>A |[M:8/4] [DB]8 z8 |] %16
w: |||
V:2
 (3[B,,B,][B,,B,][B,,B,] [B,,B,]>[B,,B,] [B,,B,]2 [B,,B,]2 | %1
 [F,CE]>[F,CE] [F,CE]>[F,CE] [F,CE]2 z2 | (3[G,CE][G,CE][G,CE] [G,CE]>[G,CE] [F,B,E]2 [F,A,E]2 | %3
 [B,,B,]>[B,,B,] [D,B,]>[K:treble][F,A,F] [B,F]2 z2 | %4
 (3[B,F][B,F][B,F] [B,F]>[B,F] [B,F]2[K:bass] [F,A,F]2 | [D,B,]>[D,B,] [D,B,]>[D,B,] [E,B,E]2 z2 | %6
 (3[F,B,D][F,B,D][F,B,D] [F,DF]>[F,EF] [F,DF]>[F,CE] [F,CE]>[F,E] | [B,,F,]6 z2 | %8
 (3[B,F][B,F][B,F] [B,F]>[B,F] [A,CF]2 [B,F]2 | %9
 (3[F,B,F][F,A,F][F,A,F] [F,A,F]>[F,A,F] [F,A,F]2 z2 | %10
 (3[F,A,F][F,A,F][F,A,F] [F,A,F]>[F,A,F] [F,C]2 [F,C]2 | [F,CF]>[B,F] [B,F]>[B,F] [B,F]2 z2 | %12
 (3[B,F][B,F][B,F] [B,F]>[B,F] [B,F]2[K:bass] [F,A,F]2 | [D,B,]>[D,B,] [D,B,]>[D,B,] [E,B,E]2 z2 | %14
 (3[F,B,D][F,B,D][F,B,D] [F,DF]>[F,EF] [F,DF]>[F,CE] [F,CE]>[F,E] |[M:8/4] [B,,F,]8 z8 |] %16

